public/assets/formheimur/sund.svg

<svg viewBox="0 0 360 271" fill="none" xmlns="http://www.w3.org/2000/svg" class="formheimur-sund"><style>.formheimur-sund {
		--litur1: var(--theme-color-primary, #dcddde);
		--litur2: var(--theme-color-secondary, #ebeced);
		--litur3: var(--theme-color-tertiary, #f3f4f5);
	}

	/* Frávik */
	[data-color-theme=&apos;trustworthy&apos;] .formheimur-sund {
		--litur2: var(--theme-color-tertiary);
		--litur3: var(--theme-color-secondary);
	}
	[data-color-theme=&apos;friendly&apos;] .formheimur-sund,
	[data-color-theme=&apos;lively&apos;] .formheimur-sund {
		--litur1: var(--theme-color-tertiary);
		--litur3: var(--theme-color-primary);
	}</style><path d="M359.309 270.47L359.309 0L0.00012207 0L0.00012207 270.47L359.309 270.47Z" fill="var(--litur3)"/><path d="M157.338 30.3024H151.095V40.7106H157.338V30.3024Z" fill="white"/><path d="M157.338 49.9602H151.095V60.3684H157.338V49.9602Z" fill="white"/><path d="M157.338 69.6276H151.095V80.0358H157.338V69.6276Z" fill="white"/><path d="M157.338 89.2855H151.095V99.6937H157.338V89.2855Z" fill="white"/><path d="M157.338 108.953H151.095V119.361H157.338V108.953Z" fill="white"/><path d="M157.338 190.438H151.095V200.846H157.338V190.438Z" fill="white"/><path d="M157.338 210.105H151.095V220.513H157.338V210.105Z" fill="white"/><path d="M157.338 229.763H151.095V240.171H157.338V229.763Z" fill="white"/><path d="M157.338 129.559H151.095V139.967H157.338V129.559Z" fill="var(--litur2)"/><path d="M157.338 149.523H151.095V159.931H157.338V149.523Z" fill="var(--litur2)"/><path d="M157.338 169.487H151.095V179.895H157.338V169.487Z" fill="var(--litur2)"/><path d="M208.316 168.539H202.073V178.947H208.316V168.539Z" fill="white"/><path d="M208.316 148.881H202.073V159.29H208.316V148.881Z" fill="white"/><path d="M208.316 129.214H202.073V139.622H208.316V129.214Z" fill="white"/><path d="M208.316 109.556H202.073V119.964H208.316V109.556Z" fill="white"/><path d="M208.316 89.8887H202.073V100.297H208.316V89.8887Z" fill="white"/><path d="M310.369 168.539H304.125V178.947H310.369V168.539Z" fill="white"/><path d="M310.369 148.881H304.125V159.29H310.369V148.881Z" fill="white"/><path d="M310.369 129.214H304.125V139.622H310.369V129.214Z" fill="white"/><path d="M310.369 109.556H304.125V119.964H310.369V109.556Z" fill="white"/><path d="M310.369 89.8887H304.125V100.297H310.369V89.8887Z" fill="white"/><path d="M310.369 70.2309H304.125V80.6391H310.369V70.2309Z" fill="var(--litur2)"/><path d="M310.369 50.2667H304.125V60.6749H310.369V50.2667Z" fill="var(--litur2)"/><path d="M310.369 30.3024H304.125V40.7106H310.369V30.3024Z" fill="var(--litur2)"/><path d="M259.286 30.3024H253.042V40.7106H259.286V30.3024Z" fill="white"/><path d="M259.285 49.9602H253.042V60.3684H259.285V49.9602Z" fill="white"/><path d="M259.285 69.6276H253.042V80.0358H259.285V69.6276Z" fill="white"/><path d="M259.285 89.2855H253.042V99.6937H259.285V89.2855Z" fill="white"/><path d="M259.285 108.953H253.042V119.361H259.285V108.953Z" fill="white"/><path d="M259.286 190.438H253.042V200.846H259.286V190.438Z" fill="white"/><path d="M259.285 210.105H253.042V220.513H259.285V210.105Z" fill="white"/><path d="M259.285 229.763H253.042V240.171H259.285V229.763Z" fill="white"/><path d="M106.254 168.539H100.011V178.947H106.254V168.539Z" fill="white"/><path d="M106.254 148.881H100.011V159.29H106.254V148.881Z" fill="white"/><path d="M106.254 129.214H100.011V139.622H106.254V129.214Z" fill="white"/><path d="M106.254 109.556H100.011V119.964H106.254V109.556Z" fill="white"/><path d="M106.255 89.8887H100.012V100.297H106.255V89.8887Z" fill="white"/><path d="M55.1712 30.3024H48.9282V40.7106H55.1712V30.3024Z" fill="white"/><path d="M55.1707 49.9603H48.9277V60.3685H55.1707V49.9603Z" fill="white"/><path d="M55.1707 69.6277H48.9277V80.0359H55.1707V69.6277Z" fill="white"/><path d="M55.1707 89.2855H48.9277V99.6937H55.1707V89.2855Z" fill="white"/><path d="M55.1707 108.953H48.9277V119.361H55.1707V108.953Z" fill="white"/><path d="M55.1717 190.438H48.9287V200.846H55.1717V190.438Z" fill="white"/><path d="M55.1712 210.105H48.9282V220.513H55.1712V210.105Z" fill="white"/><path d="M55.1712 229.763H48.9282V240.171H55.1712V229.763Z" fill="white"/><path d="M208.316 228.001H202.073V238.409H208.316V228.001Z" fill="var(--litur1)"/><path d="M208.316 208.037H202.073V218.445H208.316V208.037Z" fill="var(--litur1)"/><path d="M208.316 188.073H202.073V198.481H208.316V188.073Z" fill="var(--litur1)"/><path d="M208.316 70.2309H202.073V80.6391H208.316V70.2309Z" fill="var(--litur1)"/><path d="M208.316 50.2667H202.073V60.6749H208.316V50.2667Z" fill="var(--litur1)"/><path d="M208.316 30.3024H202.073V40.7106H208.316V30.3024Z" fill="var(--litur1)"/><path d="M310.369 228.001H304.125V238.409H310.369V228.001Z" fill="var(--litur1)"/><path d="M310.369 208.037H304.125V218.445H310.369V208.037Z" fill="var(--litur1)"/><path d="M310.369 188.073H304.125V198.481H310.369V188.073Z" fill="var(--litur1)"/><path d="M259.285 129.559H253.042V139.967H259.285V129.559Z" fill="var(--litur1)"/><path d="M259.285 149.523H253.042V159.931H259.285V149.523Z" fill="var(--litur1)"/><path d="M259.285 169.487H253.042V179.895H259.285V169.487Z" fill="var(--litur1)"/><path d="M106.254 228.001H100.011V238.409H106.254V228.001Z" fill="var(--litur1)"/><path d="M106.254 208.037H100.011V218.445H106.254V208.037Z" fill="var(--litur1)"/><path d="M106.255 188.073H100.012V198.481H106.255V188.073Z" fill="var(--litur1)"/><path d="M106.254 70.2309H100.011V80.6391H106.254V70.2309Z" fill="var(--litur1)"/><path d="M106.254 50.2667H100.011V60.6749H106.254V50.2667Z" fill="var(--litur1)"/><path d="M106.255 30.3024H100.012V40.7106H106.255V30.3024Z" fill="var(--litur1)"/><path d="M55.1717 129.559H48.9287V139.967H55.1717V129.559Z" fill="var(--litur1)"/><path d="M55.1707 149.523H48.9277V159.931H55.1707V149.523Z" fill="var(--litur1)"/><path d="M55.1707 169.487H48.9277V179.895H55.1707V169.487Z" fill="var(--litur1)"/></svg>

<svg viewBox="0 0 360 271" fill="none" xmlns="http://www.w3.org/2000/svg" class="formheimur-sund"><style>.formheimur-sund{--litur1: var(--theme-color-primary, #dcddde);--litur2: var(--theme-color-secondary, #ebeced);--litur3: var(--theme-color-tertiary, #f3f4f5)}[data-color-theme=trustworthy] .formheimur-sund{--litur2: var(--theme-color-tertiary);--litur3: var(--theme-color-secondary)}[data-color-theme=friendly] .formheimur-sund,[data-color-theme=lively] .formheimur-sund{--litur1: var(--theme-color-tertiary);--litur3: var(--theme-color-primary)}</style><path d="M359.309 270.47V0H0v270.47h359.31z" fill="var(--litur3)"/><path d="M157.338 30.302h-6.243v10.409h6.243V30.302zm0 19.658h-6.243v10.408h6.243V49.96zm0 19.668h-6.243v10.408h6.243V69.628zm0 19.657h-6.243v10.409h6.243V89.285zm0 19.668h-6.243v10.408h6.243v-10.408zm0 81.485h-6.243v10.408h6.243v-10.408zm0 19.667h-6.243v10.408h6.243v-10.408zm0 19.658h-6.243v10.408h6.243v-10.408z" fill="#fff"/><path d="M157.338 129.559h-6.243v10.408h6.243v-10.408zm0 19.964h-6.243v10.408h6.243v-10.408zm0 19.964h-6.243v10.408h6.243v-10.408z" fill="var(--litur2)"/><path d="M208.316 168.539h-6.243v10.408h6.243v-10.408zm0-19.658h-6.243v10.409h6.243v-10.409zm0-19.667h-6.243v10.408h6.243v-10.408zm0-19.658h-6.243v10.408h6.243v-10.408zm0-19.667h-6.243v10.408h6.243V89.889zm102.053 78.65h-6.244v10.408h6.244v-10.408zm0-19.658h-6.244v10.409h6.244v-10.409zm0-19.667h-6.244v10.408h6.244v-10.408zm0-19.658h-6.244v10.408h6.244v-10.408zm0-19.667h-6.244v10.408h6.244V89.889z" fill="#fff"/><path d="M310.369 70.23h-6.244v10.41h6.244V70.23zm0-19.963h-6.244v10.408h6.244V50.267zm0-19.965h-6.244v10.409h6.244V30.302z" fill="var(--litur2)"/><path d="M259.286 30.302h-6.244v10.409h6.244V30.302zm-.001 19.658h-6.243v10.408h6.243V49.96zm0 19.668h-6.243v10.408h6.243V69.628zm0 19.657h-6.243v10.409h6.243V89.285zm0 19.668h-6.243v10.408h6.243v-10.408zm.001 81.485h-6.244v10.408h6.244v-10.408zm-.001 19.667h-6.243v10.408h6.243v-10.408zm0 19.658h-6.243v10.408h6.243v-10.408zm-153.031-61.224h-6.243v10.408h6.243v-10.408zm0-19.658h-6.243v10.409h6.243v-10.409zm0-19.667h-6.243v10.408h6.243v-10.408zm0-19.658h-6.243v10.408h6.243v-10.408zm.001-19.667h-6.243v10.408h6.243V89.889zM55.171 30.302h-6.243v10.409h6.243V30.302zM55.17 49.96h-6.242v10.408h6.243V49.96zm0 19.668h-6.242v10.408h6.243V69.628zm0 19.657h-6.242v10.409h6.243V89.285zm0 19.668h-6.242v10.408h6.243v-10.408zm.002 81.485h-6.243v10.408h6.243v-10.408zm-.001 19.667h-6.243v10.408h6.243v-10.408zm0 19.658h-6.243v10.408h6.243v-10.408z" fill="#fff"/><path d="M208.316 228.001h-6.243v10.408h6.243v-10.408zm0-19.964h-6.243v10.408h6.243v-10.408zm0-19.964h-6.243v10.408h6.243v-10.408zm0-117.843h-6.243v10.41h6.243V70.23zm0-19.963h-6.243v10.408h6.243V50.267zm0-19.965h-6.243v10.409h6.243V30.302zm102.053 197.699h-6.244v10.408h6.244v-10.408zm0-19.964h-6.244v10.408h6.244v-10.408zm0-19.964h-6.244v10.408h6.244v-10.408zm-51.084-58.514h-6.243v10.408h6.243v-10.408zm0 19.964h-6.243v10.408h6.243v-10.408zm0 19.964h-6.243v10.408h6.243v-10.408zm-153.031 58.514h-6.243v10.408h6.243v-10.408zm0-19.964h-6.243v10.408h6.243v-10.408zm.001-19.964h-6.243v10.408h6.243v-10.408zm-.001-117.843h-6.243v10.41h6.243V70.23zm0-19.963h-6.243v10.408h6.243V50.267zm.001-19.965h-6.243v10.409h6.243V30.302zm-51.083 99.257h-6.243v10.408h6.243v-10.408zm-.002 19.964h-6.242v10.408h6.243v-10.408zm0 19.964h-6.242v10.408h6.243v-10.408z" fill="var(--litur1)"/></svg>
